IMB-X-Files/The-Ambassadors-Assets/65fc3afad3f7832c571d4ddc_Logo1.svg

<svg fill="none" height="53" viewBox="0 0 242 53" width="242" xmlns="http://www.w3.org/2000/svg"><path clip-rule="evenodd" d="m57.6477 36.9379c2.0071 1.4202 4.1318 2.6817 6.3594 3.7624-7.2716 3.3502-13.8967 3.6751-16.0551 3.6835l-.2187-.0002c-.3341-.002-.5141-.0113-.5165-.0113 3.8671-1.9109 7.3843-4.431 10.4309-7.4344zm7.9504-11.0219c.7146.4981 1.4498.968 2.2071 1.4068-2.6997 5.1811-5.6625 8.3076-5.6625 8.3076 2.8305-2.3482 5.0978-5.0522 6.8741-7.642 2.5452 1.3283 5.2904 2.3201 8.1797 2.9115-2.8672 3.2184-6.2344 5.9728-9.9795 8.1356-2.6849-1.1326-5.2287-2.5379-7.599-4.1804 2.3644-2.6847 4.3818-5.6881 5.9801-8.9391zm30.7187-3.1463c2.019 0 3.5425.7986 4.6902 1.8179l-1.6772 2.735c-.6843-.509-1.4895-1.1203-2.8243-1.1203-1.609 0-2.5662 1.1715-2.5676 2.5126 0 1.3411.9586 2.5141 2.5676 2.5141 1.3348 0 2.14-.6114 2.8243-1.1218l1.6772 2.7349c-1.1477 1.0194-2.6712 1.818-4.6902 1.818-3.5765 0-6.2636-2.5638-6.2636-5.9452 0-3.3799 2.6871-5.9452 6.2636-5.9452zm9.7702 0v4.1958h4.163v-4.1958h3.817v11.8904h-3.817v-4.372h-4.163v4.372h-3.816v-11.8904zm13.878 0v11.8904h-3.792v-11.8904zm5.939 0v8.5678h5.436v3.3226h-9.269v-11.8904zm10.491 0v11.8904h-3.791v-11.8904zm12.064 0c2.361 0 4.366 1.4348 4.366 4.5285 0 2.7987-2.005 4.4593-4.366 4.4593h-2.429v2.9026h-3.737v-11.8904zm9.422 0v11.8904h-3.792v-11.8904zm8.274 0c2.361 0 4.365 1.4348 4.365 4.5285 0 2.7987-2.004 4.4593-4.365 4.4593h-2.43v2.9026h-3.738v-11.8904zm15.318 0v3.3226h-6.069v1.0494h4.811v3.0591h-4.811v1.1367h6.069v3.3226h-9.689v-11.8904zm8.336 0c2.346 0 4.102 1.3655 4.102 4.0573 0 1.4934-.811 2.6903-2.079 3.3032l-.116.054 2.817 3.6012v.8747h-3.713l-2.919-4.0904h-.608v4.0904h-3.713v-11.8904zm-120.6011-8.0772c5.6242.0222 10.8559 1.7196 15.2317 4.6252-1.3586 3.3058-3.1378 6.3893-5.2698 9.1866-3.0834-.4699-6.0066-1.4305-8.6885-2.8003 2.6631-4.4364 3.8107-8.0539 3.84-8.1471l.0006-.0018-2.7952-.6686c-.5749 2.9352-1.4983 5.6243-2.5467 7.9948-.7749-.4566-1.5277-.9473-2.2541-1.4706 1.1337-2.7662 1.9747-5.6837 2.482-8.7182zm78.6571 11.3998h-1.834v2.3426h1.834c.646 0 1.104-.5074 1.105-1.1713 0-.6474-.459-1.1713-1.105-1.1713zm17.695 0h-1.835v2.3426h1.835c.646 0 1.104-.5074 1.104-1.1713 0-.6474-.458-1.1713-1.104-1.1713zm23.624 0h-1.891v1.8187h1.891c.641 0 .912-.4728.91-.9094 0-.42-.269-.9093-.91-.9093zm-108.3012-22.31496s2.2629 4.64892-.3132 9.54386c0 0 1.7706 1.1659 2.1203 1.9186l.0264.0635-.2676.8286c-2.5547-1.2999-5.3214-2.2376-8.2342-2.748l-.3808-.0641.2191-.8524s1.8733-.3143 3.279 0c0 0 2.0133-1.5347 2.1044-6.60846l.0027-.20484z" fill="#fff" fill-rule="evenodd"/></svg>

<svg width="242" height="53" viewBox="0 0 242 53" fill="none" xmlns="http://www.w3.org/2000/svg">
    <path fill-rule="evenodd" clip-rule="evenodd"
        d="M57.6477 36.9379C59.6548 38.3581 61.7795 39.6196 64.0071 40.7003C56.7355 44.0505 50.1104 44.3754 47.952 44.3838L47.7333 44.3836C47.3992 44.3816 47.2192 44.3723 47.2168 44.3723C51.0839 42.4614 54.6011 39.9413 57.6477 36.9379ZM65.5981 25.916C66.3127 26.4141 67.0479 26.884 67.8052 27.3228C65.1055 32.5039 62.1427 35.6304 62.1427 35.6304C64.9732 33.2822 67.2405 30.5782 69.0168 27.9884C71.562 29.3167 74.3072 30.3085 77.1965 30.8999C74.3293 34.1183 70.9621 36.8727 67.217 39.0355C64.5321 37.9029 61.9883 36.4976 59.618 34.8551C61.9824 32.1704 63.9998 29.167 65.5981 25.916ZM96.3168 22.7697C98.3358 22.7697 99.8593 23.5683 101.007 24.5876L99.3298 27.3226C98.6455 26.8136 97.8403 26.2023 96.5055 26.2023C94.8965 26.2023 93.9393 27.3738 93.9379 28.7149C93.9379 30.056 94.8965 31.229 96.5055 31.229C97.8403 31.229 98.6455 30.6176 99.3298 30.1072L101.007 32.8421C99.8593 33.8615 98.3358 34.6601 96.3168 34.6601C92.7403 34.6601 90.0532 32.0963 90.0532 28.7149C90.0532 25.335 92.7403 22.7697 96.3168 22.7697ZM106.087 22.7697V26.9655H110.25V22.7697H114.067V34.6601H110.25V30.2881H106.087V34.6601H102.271V22.7697H106.087ZM119.965 22.7697V34.6601H116.173V22.7697H119.965ZM125.904 22.7697V31.3375H131.34V34.6601H122.071V22.7697H125.904ZM136.395 22.7697V34.6601H132.604V22.7697H136.395ZM148.459 22.7697C150.82 22.7697 152.825 24.2045 152.825 27.2982C152.825 30.0969 150.82 31.7575 148.459 31.7575H146.03V34.6601H142.293V22.7697H148.459ZM157.881 22.7697V34.6601H154.089V22.7697H157.881ZM166.155 22.7697C168.516 22.7697 170.52 24.2045 170.52 27.2982C170.52 30.0969 168.516 31.7575 166.155 31.7575H163.725V34.6601H159.987V22.7697H166.155ZM181.473 22.7697V26.0923H175.404V27.1417H180.215V30.2008H175.404V31.3375H181.473V34.6601H171.784V22.7697H181.473ZM189.809 22.7697C192.155 22.7697 193.911 24.1352 193.911 26.827C193.911 28.3204 193.1 29.5173 191.832 30.1302L191.716 30.1842L194.533 33.7854V34.6601H190.82L187.901 30.5697H187.293V34.6601H183.58V22.7697H189.809ZM69.2079 14.6925C74.8321 14.7147 80.0638 16.4121 84.4396 19.3177C83.081 22.6235 81.3018 25.707 79.1698 28.5043C76.0864 28.0344 73.1632 27.0738 70.4813 25.704C73.1444 21.2676 74.292 17.6501 74.3213 17.5569L74.3219 17.5551L71.5267 16.8865C70.9518 19.8217 70.0284 22.5108 68.98 24.8813C68.2051 24.4247 67.4523 23.934 66.7259 23.4107C67.8596 20.6445 68.7006 17.727 69.2079 14.6925ZM147.865 26.0923H146.031V28.4349H147.865C148.511 28.4349 148.969 27.9275 148.97 27.2636C148.97 26.6162 148.511 26.0923 147.865 26.0923ZM165.56 26.0923H163.725V28.4349H165.56C166.206 28.4349 166.664 27.9275 166.664 27.2636C166.664 26.6162 166.206 26.0923 165.56 26.0923ZM189.184 26.0923H187.293V27.911H189.184C189.825 27.911 190.096 27.4382 190.094 27.0016C190.094 26.5816 189.825 26.0923 189.184 26.0923ZM80.8828 3.77734C80.8828 3.77734 83.1457 8.42626 80.5696 13.3212C80.5696 13.3212 82.3402 14.4871 82.6899 15.2398L82.7163 15.3033L82.4487 16.1319C79.894 14.832 77.1273 13.8943 74.2145 13.3839L73.8337 13.3198L74.0528 12.4674C74.0528 12.4674 75.9261 12.1531 77.3318 12.4674C77.3318 12.4674 79.3451 10.9327 79.4362 5.85894L79.4389 5.6541L80.8828 3.77734Z"
        fill="white" />
</svg>
